X:1
T:Title
%%score { 1 | 2 }
L:1/8
M:6/8
K:D
V:1 treble nm="Grand Piano"
V:2 bass 
V:1
 z3 z2[Q:1/4=100] [FA] | [FA]>[=F^G][^FA] [Fd]>[Ac][=GB] | [FA][DF][GB] [FA]2 F | %3
 F>ED [GB][FA][DF] | [CE]3- [CE]2 [GA] | [FA]>[=F^G][^FA] [Fd]>[Ac][=GB] | %6
 [FA][DF][FA] [GB]2 [Gc]/[Gc]/ | [Fd][FA]G F>D[CE] |[M:5/8] [A,D]-[A,D]- [A,D]3 |[M:1/8] [FA] | %10
[M:3/4] c>c cc Bc | [Fd]4- [Fd][FA] | B>B B[^GB] [Gc][Gd] | [Ac]4- [Ac][GA] | %14
 [FA][DF] [GB] [FA]2 F/F/ | FD G F2 [FA] | [GB]>[Gc] [Fd][Gc]- [Gc]/[Gd]/[Ge] | %17
[M:5/8] [Fd]-[Fd]- [Fd]3 |] %18
V:2
 z3 z2 [D,D] | [D,D]>[D,D][D,D] [D,A,]>[D,B,][D,C] | [D,D][D,A,][D,D] [D,D]2 [D,A,D] | %3
 [D,A,D]>[D,G,A,][D,F,A,] [D,D][D,D][D,A,] | [A,,A,]3- [A,,A,]2 [A,C] | %5
 [D,D]>[D,D][D,D] [D,A,]>[C,B,][C,C] | [D,D][D,A,][D,D] [G,D]2 [D,A,] | %7
 [D,A,][D,D][G,B,E] [A,D]>[A,,F,][A,,G,] |[M:5/8] [D,F,]-[D,F,]- [D,F,]3 |[M:1/8] [D,D] | %10
[M:3/4][K:treble] [A,G]>[A,EG] [A,EG][A,EG] [A,DG][A,G] | [D,A,]4- [D,A,][D,D] | %12
 [G,DG]>[G,DG] [G,DG][K:bass][E,E] [E,E][E,E] | [A,E]4- [A,E][A,C] | %14
 [D,D][D,A,] [D,D] [D,D]2 [D,A,D]/[D,A,D]/ | [D,A,D][D,F,] [D,B,D] [D,A,D]2 [D,D] | %16
 [G,D]>[E,A,] [D,A,][A,,A,]- [A,,A,]/[A,,B,]/[A,,C] |[M:5/8] [D,A,]-[D,A,]- [D,A,]3 |] %18

